X: 775
M: 6/8
L: 1/8
K: F
|:\
dBB BdB | cAA AcA | BGG GBG | ECC C3 :|
|:\
dBd B,2d | cBc A,2c | BGB AFc | AFF F3 :|

